src/images_karasa_jaga_svg/cmd/32/starshapes.star5.svg

<svg height="32" viewBox="0 0 32 32" width="32" xmlns="http://www.w3.org/2000/svg" xmlns:xlink="http://www.w3.org/1999/xlink"><linearGradient id="a" gradientUnits="userSpaceOnUse" x1="7.060274" x2="120.9386" y1="64.000862" y2="64.000862"><stop offset="0" stop-color="#7c9fcf"/><stop offset=".5" stop-color="#7c9ece"/><stop offset="1" stop-color="#7b9dcf"/></linearGradient><linearGradient id="b" gradientUnits="userSpaceOnUse" x1="74.346382" x2="56.813534" y1="122.2762" y2="1.834788"><stop offset="0" stop-color="#fff"/><stop offset=".46428573" stop-color="#fff"/><stop offset=".77777779" stop-color="#f1f1f1"/><stop offset=".90625" stop-color="#eaeaea"/><stop offset="1" stop-color="#dfdfdf"/></linearGradient><path d="m58.447266 7.3046875a3.8958785 3.8958785 0 0 0 -3.679688 2.6699219l-11.480469 34.6992186-33.3378902 8.916016a3.8958785 3.8958785 0 0 0 -1.3007813 6.902344l29.4531245 21.644531-1.822265 34.458981a3.8958785 3.8958785 0 0 0 6.164062 3.36914l29.683594-21.322262 32.208987 12.382812a3.8958785 3.8958785 0 0 0 5.10937-4.82031l-11.105466-34.822268 21.730466-26.80664a3.8958785 3.8958785 0 0 0 -3.0039-6.347656l-36.550785-.201172-18.78125-28.949219a3.8958785 3.8958785 0 0 0 -3.287109-1.7734375z" fill="url(#a)" transform="matrix(.25870695 .03690013 -.03690013 .25870695 1.278083 -2.377095)"/><path d="m105.73509 107.38825-34.172747-13.136604-31.393241 22.549394 1.933691-36.559645-31.146795-22.888599 35.367835-9.458504 12.143462-36.695328 19.924833 30.713971 38.651872.209639-23.053614 28.440782z" fill="url(#b)" transform="matrix(.25870695 .03690013 -.03690013 .25870695 1.278083 -2.377095)"/></svg>

<?xml version="1.0" encoding="UTF-8" standalone="no"?>
<svg
   xmlns:dc="http://purl.org/dc/elements/1.1/"
   xmlns:cc="http://creativecommons.org/ns#"
   xmlns:rdf="http://www.w3.org/1999/02/22-rdf-syntax-ns#"
   xmlns:svg="http://www.w3.org/2000/svg"
   xmlns="http://www.w3.org/2000/svg"
   xmlns:xlink="http://www.w3.org/1999/xlink"
   xmlns:sodipodi="http://sodipodi.sourceforge.net/DTD/sodipodi-0.dtd"
   xmlns:inkscape="http://www.inkscape.org/namespaces/inkscape"
   height="128"
   viewBox="0 0 128 128"
   width="128"
   version="1.1"
   id="svg2866"
   sodipodi:docname="starshapes.star5.svg"
   inkscape:version="0.92.3 (unknown)"
   inkscape:export-filename="/home/rizmut/Dokumen/Rizmut/Github/libreoffice-style-karasa-jaga/build/images_karasa_jaga/cmd/32/starshapes.star5.png"
   inkscape:export-xdpi="24"
   inkscape:export-ydpi="24">
  <metadata
     id="metadata2872">
    <rdf:RDF>
      <cc:Work
         rdf:about="">
        <dc:format>image/svg+xml</dc:format>
        <dc:type
           rdf:resource="http://purl.org/dc/dcmitype/StillImage" />
        <dc:title></dc:title>
      </cc:Work>
    </rdf:RDF>
  </metadata>
  <defs
     id="defs2870">
    <linearGradient
       id="linearGradient3369">
      <stop
         id="stop3372"
         offset="0"
         style="stop-color:#ffffff;stop-opacity:1;" />
      <stop
         style="stop-color:#ffffff;stop-opacity:1;"
         offset="0.46428573"
         id="stop3374" />
      <stop
         style="stop-color:#f1f1f1;stop-opacity:1;"
         offset="0.77777779"
         id="stop3376" />
      <stop
         id="stop3378"
         offset="0.90625"
         style="stop-color:#eaeaea;stop-opacity:1;" />
      <stop
         id="stop3384"
         offset="1"
         style="stop-color:#dfdfdf;stop-opacity:1;" />
    </linearGradient>
    <linearGradient
       id="linearGradient7422">
      <stop
         style="stop-color:#7c9fcf;stop-opacity:1"
         offset="0"
         id="stop7424" />
      <stop
         id="stop5348"
         offset="0.5"
         style="stop-color:#7c9ece;stop-opacity:1" />
      <stop
         id="stop7426"
         offset="1"
         style="stop-color:#7b9dcf;stop-opacity:1" />
    </linearGradient>
    <linearGradient
       inkscape:collect="always"
       xlink:href="#linearGradient7422"
       id="linearGradient1415"
       x1="7.0602736"
       y1="64.000862"
       x2="120.9386"
       y2="64.000862"
       gradientUnits="userSpaceOnUse" />
    <linearGradient
       inkscape:collect="always"
       xlink:href="#linearGradient3369"
       id="linearGradient1423"
       x1="74.346382"
       y1="122.2762"
       x2="56.813534"
       y2="1.8347883"
       gradientUnits="userSpaceOnUse" />
  </defs>
  <sodipodi:namedview
     pagecolor="#ffffff"
     bordercolor="#666666"
     borderopacity="1"
     objecttolerance="10"
     gridtolerance="10"
     guidetolerance="10"
     inkscape:pageopacity="0"
     inkscape:pageshadow="2"
     inkscape:window-width="1366"
     inkscape:window-height="706"
     id="namedview2868"
     showgrid="true"
     inkscape:zoom="2.6074563"
     inkscape:cx="69.102921"
     inkscape:cy="55.673782"
     inkscape:window-x="0"
     inkscape:window-y="0"
     inkscape:window-maximized="1"
     inkscape:current-layer="svg2866"
     inkscape:snap-global="true">
    <inkscape:grid
       type="xygrid"
       id="grid13293"
       spacingx="4"
       spacingy="4"
       empspacing="1" />
  </sodipodi:namedview>
  <linearGradient
     id="a"
     gradientUnits="userSpaceOnUse"
     x1="1.789204"
     x2="1.376028"
     y1="56.265892"
     y2="104.97279">
    <stop
       offset="0"
       stop-color="#f9f9fa"
       id="stop2853" />
    <stop
       offset="1"
       stop-color="#f9f9fa"
       stop-opacity="0"
       id="stop2855" />
  </linearGradient>
  <path
     sodipodi:type="inkscape:offset"
     inkscape:radius="3.895489"
     inkscape:original="M 58.466797 11.199219 L 46.324219 47.894531 L 10.955078 57.353516 L 42.103516 80.242188 L 40.169922 116.80078 L 71.5625 94.251953 L 105.73438 107.38867 L 93.990234 70.5625 L 117.04492 42.123047 L 78.392578 41.912109 L 58.466797 11.199219 z "
     style="opacity:1;fill:url(#linearGradient1415);fill-opacity:1.0;stroke:none;stroke-width:3.82664847;stroke-linecap:round;stroke-linejoin:bevel;stroke-miterlimit:4;stroke-dasharray:none;stroke-dashoffset:0;stroke-opacity:0.73039216"
     id="path1405"
     d="M 58.447266,7.3046875 A 3.8958785,3.8958785 0 0 0 54.767578,9.9746094 L 43.287109,44.673828 9.9492188,53.589844 A 3.8958785,3.8958785 0 0 0 8.6484375,60.492188 L 38.101562,82.136719 36.279297,116.5957 a 3.8958785,3.8958785 0 0 0 6.164062,3.36914 L 72.126953,98.642578 104.33594,111.02539 a 3.8958785,3.8958785 0 0 0 5.10937,-4.82031 L 98.339844,71.382812 120.07031,44.576172 a 3.8958785,3.8958785 0 0 0 -3.0039,-6.347656 L 80.515625,38.027344 61.734375,9.078125 A 3.8958785,3.8958785 0 0 0 58.447266,7.3046875 Z"
     transform="matrix(1.0348278,0.14760053,-0.14760053,1.0348278,5.1123313,-9.5083787)" />
  <path
     sodipodi:type="star"
     style="opacity:1;fill:url(#linearGradient1423);fill-opacity:1;stroke:none;stroke-width:3.82664847;stroke-linecap:round;stroke-linejoin:bevel;stroke-miterlimit:4;stroke-dasharray:none;stroke-dashoffset:0;stroke-opacity:0.73039216"
     id="path829"
     sodipodi:sides="5"
     sodipodi:cx="66.474297"
     sodipodi:cy="66.972725"
     sodipodi:r1="56.345581"
     sodipodi:r2="27.749374"
     sodipodi:arg1="0.7998899"
     sodipodi:arg2="1.3863959"
     inkscape:flatsided="false"
     inkscape:rounded="0"
     inkscape:randomized="0"
     d="M 105.73509,107.38825 71.562343,94.251646 40.169102,116.80104 42.102793,80.241395 10.955998,57.352796 46.323833,47.894292 58.467295,11.198964 78.392128,41.912935 117.044,42.122574 93.990386,70.563356 Z"
     transform="matrix(1.0348278,0.14760053,-0.14760053,1.0348278,5.1123313,-9.5083787)" />
</svg>
